!!!COM: Music21
!!!OTL: strathspey_Bidh-Eoin
!!!OMV: strathspey_Bidh-Eoin
**kern
*clefG2
*k[f#c#]
*b:
*M4/4
=1
8.ddL
16cc#Jk
8.bL
16aJk
4f#
8.eL
16f#Jk
=
4a
8.aL
16bJk
16cc#KL
8.aJ
8.aL
16cc#Jk
=
8.ddL
16cc#Jk
8.bL
16aJk
4f#
4e
=
8.ff#L
16eeJk
8.ddL
16cc#Jk
16cc#KL
8.bJ
8.bL
16cc#Jk
!!linebreak:original
=||
*M4/4
8.ddL
16cc#Jk
8.bL
16aJk
4f#
8.eL
16f#Jk
=
4a
8.aL
16bJk
16cc#KL
8.aJ
8.aL
16cc#Jk
=
8.ddL
16cc#Jk
8.bL
16aJk
4f#
4e
=
8.ff#L
16eeJk
8.ddL
16cc#Jk
16cc#KL
8.bJ
8.bL
16cc#Jk
=||
4dd
8.ddL
16ff#Jk
4ee
8.eeL
16ff#Jk
!!linebreak:original
=
4dd
8.ddL
16ff#Jk
8.eeL
16cc#Jk
4a
=
8.ddL
16cc#Jk
8.ddL
16ff#Jk
4ee
8.eeL
16ff#Jk
=
8.ff#L
16eeJk
8.ddL
16cc#Jk
16cc#KL
8.bJ
8.bL
16cc#Jk
=||
4dd
8.ddL
16ff#Jk
4ee
8.eeL
16ff#Jk
=
4dd
8.ddL
16ff#Jk
8.eeL
16cc#Jk
4a
!!linebreak:original
=
8.ddL
16cc#Jk
8.ddL
16ff#Jk
4ee
8.eeL
16ff#Jk
=
8.ff#L
16eeJk
8.ddL
16cc#Jk
16cc#KL
8.bJ
8.bL
16cc#Jk
=||
*-
